svg/100/rounded/avg_pace-fill.svg

<svg xmlns="http://www.w3.org/2000/svg" width="48" height="48" viewBox="0 -960 960 960"><path d="M594.803-758Q586-758 579-765.197t-7-16Q572-790 579.197-797t16-7Q604-804 611-796.803t7 16Q618-772 610.803-765t-16 7Zm-3 602Q583-156 576-163.197t-7-16Q569-188 576.197-195t16-7Q601-202 608-194.803t7 16Q615-170 607.803-163t-16 7Zm160-474Q743-630 736-637.197t-7-16Q729-662 736.197-669t16-7Q761-676 768-668.803t7 16Q775-644 767.803-637t-16 7Zm-3 349Q740-281 733-288.197t-7-16Q726-313 733.197-320t16-7Q758-327 765-319.803t7 16Q772-295 764.803-288t-16 7Zm53-176Q793-457 786-464.197t-7-16Q779-489 786.197-496t16-7Q811-503 818-495.803t7 16Q825-471 817.803-464t-16 7ZM132-479.991Q132-621 228.5-721.5T465-828q6 0 10.5 3.232t4.5 8.054q0 4.714-3.946 7.483-3.946 2.769-9.054 3.231-131 5-222 99.633t-91 226.44Q154-347 244.5-253T467-154q5.108.476 9.054 3.544 3.946 3.068 3.946 7.491 0 4.715-4.5 7.84T465-132q-140-6-236.5-106.491-96.5-100.49-96.5-241.5ZM479.911-429Q458-429 443.5-443.562 429-458.125 429-480q0-7.938 1.5-14.969t5.5-13.364L368-577q-3-3-2.5-7.5t3.5-7.5q3-3 7-3t7 3l69 68q6-3 28-7 21.875 0 36.438 14.589Q531-501.823 531-479.911 531-458 516.411-443.5q-14.588 14.5-36.5 14.5Z"/></svg>

<svg xmlns="http://www.w3.org/2000/svg" width="48" height="48" viewBox="0 -960 960 960"><path d="M594.8-758q-8.8 0-15.8-7.2-7-7.19-7-16 0-8.8 7.2-15.8 7.19-7 16-7 8.8 0 15.8 7.2 7 7.19 7 16 0 8.8-7.2 15.8-7.19 7-16 7Zm-3 602q-8.8 0-15.8-7.2-7-7.19-7-16 0-8.8 7.2-15.8 7.19-7 16-7 8.8 0 15.8 7.2 7 7.19 7 16 0 8.8-7.2 15.8-7.19 7-16 7Zm160-474q-8.8 0-15.8-7.2-7-7.19-7-16 0-8.8 7.2-15.8 7.19-7 16-7 8.8 0 15.8 7.2 7 7.19 7 16 0 8.8-7.2 15.8-7.19 7-16 7Zm-3 349q-8.8 0-15.8-7.2-7-7.19-7-16 0-8.8 7.2-15.8 7.19-7 16-7 8.8 0 15.8 7.2 7 7.19 7 16 0 8.8-7.2 15.8-7.19 7-16 7Zm53-176q-8.8 0-15.8-7.2-7-7.19-7-16 0-8.8 7.2-15.8 7.19-7 16-7 8.8 0 15.8 7.2 7 7.19 7 16 0 8.8-7.2 15.8-7.19 7-16 7ZM132-479.99Q132-621 228.5-721.5T465-828q6 0 10.5 3.23t4.5 8.06q0 4.71-3.95 7.48-3.94 2.77-9.05 3.23-131 5-222 99.63-91 94.64-91 226.44Q154-347 244.5-253T467-154q5.11.48 9.05 3.54 3.95 3.07 3.95 7.5 0 4.71-4.5 7.83Q471-132 465-132q-140-6-236.5-106.49T132-479.99ZM479.91-429q-21.91 0-36.41-14.56Q429-458.13 429-480q0-7.94 1.5-14.97t5.5-13.36L368-577q-3-3-2.5-7.5t3.5-7.5q3-3 7-3t7 3l69 68q6-3 28-7 21.88 0 36.44 14.59Q531-501.82 531-479.91t-14.59 36.41q-14.59 14.5-36.5 14.5Z"/></svg>
